Adwaita++-Light/panel/24/megasynching.svg

<svg height="24" width="24" xmlns="http://www.w3.org/2000/svg">
  <g fill="#444">
    <path d="m11 3c-4.4177135 0-8 3.578744-8 8 0 4.417713 3.5787438 8 8 8 .326401 0 .646718-.02453.962891-.0625a5 5 0 0 1 -.962891-2.9375 5 5 0 0 1 2-3.992188v-.507812l-1 1.5h-2l-1-1.5v2.5h-2v-6h2l2 3 2-3h2v3.105469a5 5 0 0 1 1-.105469 5 5 0 0 1 2.9375.960938c.037824-.315629.0625-.635059.0625-.960938 0-4.4177134-3.578744-8-8-8z" transform="translate(1 1)"/>
    <path d="m20.464742 14.999335c-1.1045-1.9131-3.551-2.5687-5.4641-1.4641-1.9132 1.1046-2.5686 3.5509-1.4641 5.4641 1.1045 1.9131 3.551 2.5687 5.4641 1.4641 1.9132-1.1046 2.5686-3.5509 1.4641-5.4641zm-.86601.5a3 3 0 0 1 -1.0981 4.0981l-.49998-.8661a2 2 0 0 0 .73208-2.7321l.86598-.4999zm-4.0981-1.0981.49998.8661a2 2 0 0 0 -.73208 2.7321l-.86598.4999a3 3 0 0 1 1.0981-4.0981z"/>
  </g>
</svg>

<svg xmlns="http://www.w3.org/2000/svg" width="24" height="24" version="1.1">
 <defs>
  <style id="current-color-scheme" type="text/css">
   .ColorScheme-Text { color:#444444; } .ColorScheme-Highlight { color:#4285f4; }
  </style>
 </defs>
 <g transform="translate(1,1.0000001)" style="fill:currentColor" class="ColorScheme-Text">
  <path style="fill:currentColor" class="ColorScheme-Text" d="m 11,3 c -4.4177135,0 -8,3.578744 -8,8 0,4.417713 3.5787438,8 8,8 0.326401,0 0.646718,-0.02453 0.962891,-0.0625 A 5,5 0 0 1 11,16 5,5 0 0 1 13,12.007812 L 13,11.5 12,13 10,13 9,11.5 9,14 7,14 7,8 l 2,0 2,3 2,-3 2,0 0,3.105469 A 5,5 0 0 1 16,11 5,5 0 0 1 18.9375,11.960938 C 18.975324,11.645309 19,11.325879 19,11 19,6.5822866 15.421256,3 11,3 Z"/>
 </g>
 <path class="ColorScheme-Text" d="m 20.464742,14.999335 c -1.1045,-1.9131 -3.551,-2.5687 -5.4641,-1.4641 -1.9132,1.1046 -2.5686,3.5509 -1.4641,5.4641 1.1045,1.9131 3.551,2.5687 5.4641,1.4641 1.9132,-1.1046 2.5686,-3.5509 1.4641,-5.4641 z m -0.86601,0.5 a 3,3 0 0 1 -1.0981,4.0981 l -0.49998,-0.8661 a 2,2 0 0 0 0.73208,-2.7321 l 0.86598,-0.4999 z m -4.0981,-1.0981 0.49998,0.8661 a 2,2 0 0 0 -0.73208,2.7321 l -0.86598,0.4999 a 3,3 0 0 1 1.0981,-4.0981 z" style="fill:currentColor"/>
</svg>
